svgs/solid/vault.svg

<svg xmlns="http://www.w3.org/2000/svg" viewBox="0 0 576 512"><!--! Font Awesome Pro 6.0.0-alpha3 by @fontawesome - https://fontawesome.com License - https://fontawesome.com/license (Commercial License) --><path d="M224 320c-44.18 0-80-35.82-80-80S179.8 160 224 160s80 35.82 80 80S268.2 320 224 320zM512 0H64C28.65 0 0 28.65 0 64v352c0 35.35 28.65 64 64 64h16L96 512h64l16-32h224l16 32h64l16-32H512c35.35 0 64-28.65 64-64V64C576 28.65 547.3 0 512 0zM224 400c-88.37 0-160-71.63-160-160s71.63-160 160-160s160 71.63 160 160S312.4 400 224 400zM480 221.1V336c0 8.844-7.156 16-16 16S448 344.8 448 336V221.1C429.4 214.4 416 196.9 416 176C416 149.5 437.5 128 464 128S512 149.5 512 176C512 196.9 498.6 214.4 480 221.1z"/></svg>

<svg xmlns="http://www.w3.org/2000/svg" viewBox="0 0 576 512"><!--! Font Awesome Pro 6.4.2 by @fontawesome - https://fontawesome.com License - https://fontawesome.com/license (Commercial License) Copyright 2023 Fonticons, Inc. --><path d="M64 0C28.7 0 0 28.7 0 64V416c0 35.3 28.7 64 64 64H80l16 32h64l16-32H400l16 32h64l16-32h16c35.3 0 64-28.7 64-64V64c0-35.3-28.7-64-64-64H64zM224 320a80 80 0 1 0 0-160 80 80 0 1 0 0 160zm0-240a160 160 0 1 1 0 320 160 160 0 1 1 0-320zM480 221.3V336c0 8.8-7.2 16-16 16s-16-7.2-16-16V221.3c-18.6-6.6-32-24.4-32-45.3c0-26.5 21.5-48 48-48s48 21.5 48 48c0 20.9-13.4 38.7-32 45.3z"/></svg>
